build/svg/cmd/32/changecasetoupper.svg

<?xml version="1.0" encoding="UTF-8" standalone="no"?>
<svg
   xmlns:dc="http://purl.org/dc/elements/1.1/"
   xmlns:cc="http://creativecommons.org/ns#"
   xmlns:rdf="http://www.w3.org/1999/02/22-rdf-syntax-ns#"
   xmlns:svg="http://www.w3.org/2000/svg"
   xmlns="http://www.w3.org/2000/svg"
   xmlns:sodipodi="http://sodipodi.sourceforge.net/DTD/sodipodi-0.dtd"
   xmlns:inkscape="http://www.inkscape.org/namespaces/inkscape"
   viewBox="0 0 32 32"
   version="1.1"
   id="svg6"
   sodipodi:docname="changecasetoupper.svg"
   inkscape:version="0.92.5 (2060ec1f9f, 2020-04-08)"
   inkscape:export-filename="/home/jupiter007/Libreoffice yaru theme fullcolor/build/cmd/32/changecasetoupper.png"
   inkscape:export-xdpi="96"
   inkscape:export-ydpi="96">
  <metadata
     id="metadata12">
    <rdf:RDF>
      <cc:Work
         rdf:about="">
        <dc:format>image/svg+xml</dc:format>
        <dc:type
           rdf:resource="http://purl.org/dc/dcmitype/StillImage" />
      </cc:Work>
    </rdf:RDF>
  </metadata>
  <defs
     id="defs10" />
  <sodipodi:namedview
     pagecolor="#ffffff"
     bordercolor="#666666"
     borderopacity="1"
     objecttolerance="10"
     gridtolerance="10"
     guidetolerance="10"
     inkscape:pageopacity="0"
     inkscape:pageshadow="2"
     inkscape:window-width="1920"
     inkscape:window-height="1011"
     id="namedview8"
     showgrid="true"
     inkscape:zoom="7.375"
     inkscape:cx="-14.735961"
     inkscape:cy="-10.160068"
     inkscape:window-x="1920"
     inkscape:window-y="32"
     inkscape:window-maximized="1"
     inkscape:current-layer="svg6">
    <inkscape:grid
       type="xygrid"
       id="grid844" />
  </sodipodi:namedview>
  <path
     style="opacity:0.6;fill:#000000;fill-opacity:1;stroke:#000000;stroke-width:2;stroke-linejoin:round;stroke-miterlimit:4;stroke-dasharray:none"
     inkscape:connector-curvature="0"
     id="path872"
     d="m 24,3 -4,5 h 8 z" />
  <path
     style="color:#000000;font-style:normal;font-variant:normal;font-weight:normal;font-stretch:normal;font-size:medium;line-height:normal;font-family:sans-serif;font-variant-ligatures:normal;font-variant-position:normal;font-variant-caps:normal;font-variant-numeric:normal;font-variant-alternates:normal;font-feature-settings:normal;text-indent:0;text-align:start;text-decoration:none;text-decoration-line:none;text-decoration-style:solid;text-decoration-color:#000000;letter-spacing:normal;word-spacing:normal;text-transform:none;writing-mode:lr-tb;direction:ltr;text-orientation:mixed;dominant-baseline:auto;baseline-shift:baseline;text-anchor:start;white-space:normal;shape-padding:0;clip-rule:nonzero;display:inline;overflow:visible;visibility:visible;opacity:0.6;isolation:auto;mix-blend-mode:normal;color-interpolation:sRGB;color-interpolation-filters:linearRGB;solid-color:#000000;solid-opacity:1;vector-effect:none;fill:#000000;fill-opacity:1;fill-rule:nonzero;stroke:#000000;stroke-width:2;stroke-linecap:butt;stroke-linejoin:miter;stroke-miterlimit:4;stroke-dasharray:none;stroke-dashoffset:0;stroke-opacity:1;color-rendering:auto;image-rendering:auto;shape-rendering:auto;text-rendering:auto;enable-background:accumulate"
     d="M 7.9726562,12 7.8554688,12.335938 4.0625,23.308594 3.9238281,23.771484 2,29 H 4.453125 L 6.6914062,23.013672 H 12.332031 L 14.603516,29 H 17 h 0.146484 2.117188 5.31425 c 3.011972,1.2e-5 5.421875,-2.576477 5.421875,-5.666016 v -0.002 C 29.997797,21.330255 28.954018,20.013558 27.341594,19 c 0.446082,-0.771847 0.762253,-1.586727 0.763672,-2.5 0,-2.721011 -2.105469,-4.5 -4.789063,-4.5 H 19.263672 17 v 1 15.601562 L 15.222656,23.771484 15.083984,23.308594 11.173828,12 H 10.572266 10 9.7324219 9.5292969 8.5722656 8 Z M 19,14 h 4.423625 c 1.423398,0 2.576172,1.2727 2.576172,2.5 0,1.2273 -1.152774,2.5 -2.576172,2.5 H 19 Z m -9.4003906,0.751953 2.0878906,6.25 -4.3515625,0.0059 z M 19,21 h 5.755656 c 1.791291,0 3.244141,1.279466 3.244141,2.857422 C 27.999797,25.43538 26.546937,27 24.755656,27 H 19 Z"
     id="path869"
     inkscape:connector-curvature="0"
     sodipodi:nodetypes="cccccccccccccscccscccccccccccccccssscccccccssscc" />
  <path
     style="color:#000000;font-style:normal;font-variant:normal;font-weight:normal;font-stretch:normal;font-size:medium;line-height:normal;font-family:sans-serif;font-variant-ligatures:normal;font-variant-position:normal;font-variant-caps:normal;font-variant-numeric:normal;font-variant-alternates:normal;font-feature-settings:normal;text-indent:0;text-align:start;text-decoration:none;text-decoration-line:none;text-decoration-style:solid;text-decoration-color:#000000;letter-spacing:normal;word-spacing:normal;text-transform:none;writing-mode:lr-tb;direction:ltr;text-orientation:mixed;dominant-baseline:auto;baseline-shift:baseline;text-anchor:start;white-space:normal;shape-padding:0;clip-rule:nonzero;display:inline;overflow:visible;visibility:visible;opacity:1;isolation:auto;mix-blend-mode:normal;color-interpolation:sRGB;color-interpolation-filters:linearRGB;solid-color:#000000;solid-opacity:1;vector-effect:none;fill:#ffffff;fill-opacity:1;fill-rule:nonzero;stroke:none;stroke-width:2;stroke-linecap:butt;stroke-linejoin:miter;stroke-miterlimit:4;stroke-dasharray:none;stroke-dashoffset:0;stroke-opacity:1;color-rendering:auto;image-rendering:auto;shape-rendering:auto;text-rendering:auto;enable-background:accumulate"
     d="m 17,12 v 1 16 h 2.263672 5.31425 c 3.011972,1.2e-5 5.421875,-2.576477 5.421875,-5.666016 v -0.002 C 29.997797,21.330255 28.954018,20.013558 27.341594,19 c 0.446082,-0.771847 0.762253,-1.586727 0.763672,-2.5 0,-2.721011 -2.105469,-4.5 -4.789063,-4.5 h -4.052531 z m 2,2 h 4.423625 c 1.423398,0 2.576172,1.2727 2.576172,2.5 0,1.2273 -1.152774,2.5 -2.576172,2.5 H 19 Z m 0,7 h 5.755656 c 1.791291,0 3.244141,1.279466 3.244141,2.857422 C 27.999797,25.43538 26.546937,27 24.755656,27 H 19 Z"
     id="path852"
     inkscape:connector-curvature="0"
     sodipodi:nodetypes="cccccscccscccssscccssscc" />
  <path
     d="m 24,3 -4,5 h 8 z"
     id="path4"
     inkscape:connector-curvature="0"
     style="fill:#aee3f8;fill-opacity:1" />
  <path
     inkscape:connector-curvature="0"
     style="color:#000000;font-style:normal;font-variant:normal;font-weight:normal;font-stretch:normal;font-size:medium;line-height:normal;font-family:sans-serif;font-variant-ligatures:normal;font-variant-position:normal;font-variant-caps:normal;font-variant-numeric:normal;font-variant-alternates:normal;font-feature-settings:normal;text-indent:0;text-align:start;text-decoration:none;text-decoration-line:none;text-decoration-style:solid;text-decoration-color:#000000;letter-spacing:normal;word-spacing:normal;text-transform:none;writing-mode:lr-tb;direction:ltr;text-orientation:mixed;dominant-baseline:auto;baseline-shift:baseline;text-anchor:start;white-space:normal;shape-padding:0;clip-rule:nonzero;display:inline;overflow:visible;visibility:visible;opacity:1;isolation:auto;mix-blend-mode:normal;color-interpolation:sRGB;color-interpolation-filters:linearRGB;solid-color:#000000;solid-opacity:1;vector-effect:none;fill:#ffffff;fill-opacity:1;fill-rule:nonzero;stroke:none;stroke-width:1;stroke-linecap:butt;stroke-linejoin:miter;stroke-miterlimit:4;stroke-dasharray:none;stroke-dashoffset:0;stroke-opacity:1;color-rendering:auto;image-rendering:auto;shape-rendering:auto;text-rendering:auto;enable-background:accumulate"
     d="M 7.9726562,12 7.8554688,12.335938 4.0625,23.308594 3.9238281,23.771484 2,29 H 4.453125 L 6.6914062,23.013672 H 12.332031 L 14.603516,29 h 2.542968 L 15.222656,23.771484 15.083984,23.308594 11.173828,12 H 10.572266 10 9.7324219 9.5292969 8.5722656 8 Z m 1.6269532,2.751953 2.0878906,6.25 -4.3515625,0.0059 z"
     id="path835" />
</svg>

<svg xmlns="http://www.w3.org/2000/svg" viewBox="0 0 32 32"><path d="M24 3l-4 5h8z" opacity=".6" stroke="#000" stroke-width="2" stroke-linejoin="round"/><path style="line-height:normal;font-variant-ligatures:normal;font-variant-position:normal;font-variant-caps:normal;font-variant-numeric:normal;font-variant-alternates:normal;font-feature-settings:normal;text-indent:0;text-align:start;text-decoration-line:none;text-decoration-style:solid;text-decoration-color:#000;text-transform:none;text-orientation:mixed;white-space:normal;shape-padding:0;isolation:auto;mix-blend-mode:normal;solid-color:#000;solid-opacity:1" d="M7.973 12l-.118.336-3.793 10.973-.138.462L2 29h2.453l2.238-5.986h5.641L14.604 29h9.974C27.59 29 30 26.424 30 23.334v-.002c-.002-2.002-1.046-3.318-2.658-4.332.446-.772.762-1.587.763-2.5 0-2.721-2.105-4.5-4.789-4.5H17v16.602l-1.777-4.83-.139-.463L11.174 12H8zM19 14h4.424C24.847 14 26 15.273 26 16.5S24.847 19 23.424 19H19zm-9.4.752l2.088 6.25-4.352.006zM19 21h5.756C26.546 21 28 22.28 28 23.857 28 25.435 26.547 27 24.756 27H19z" color="#000" font-weight="400" font-family="sans-serif" overflow="visible" opacity=".6" stroke="#000" stroke-width="2"/><path style="line-height:normal;font-variant-ligatures:normal;font-variant-position:normal;font-variant-caps:normal;font-variant-numeric:normal;font-variant-alternates:normal;font-feature-settings:normal;text-indent:0;text-align:start;text-decoration-line:none;text-decoration-style:solid;text-decoration-color:#000;text-transform:none;text-orientation:mixed;white-space:normal;shape-padding:0;isolation:auto;mix-blend-mode:normal;solid-color:#000;solid-opacity:1" d="M17 12v17H24.578C27.59 29 30 26.424 30 23.334v-.002c-.002-2.002-1.046-3.318-2.658-4.332.446-.772.762-1.587.763-2.5 0-2.721-2.105-4.5-4.789-4.5h-4.052zm2 2h4.424C24.847 14 26 15.273 26 16.5S24.847 19 23.424 19H19zm0 7h5.756C26.546 21 28 22.28 28 23.857 28 25.435 26.547 27 24.756 27H19z" color="#000" font-weight="400" font-family="sans-serif" overflow="visible" fill="#fff"/><path d="M24 3l-4 5h8z" fill="#aee3f8"/><path style="line-height:normal;font-variant-ligatures:normal;font-variant-position:normal;font-variant-caps:normal;font-variant-numeric:normal;font-variant-alternates:normal;font-feature-settings:normal;text-indent:0;text-align:start;text-decoration-line:none;text-decoration-style:solid;text-decoration-color:#000;text-transform:none;text-orientation:mixed;white-space:normal;shape-padding:0;isolation:auto;mix-blend-mode:normal;solid-color:#000;solid-opacity:1" d="M7.973 12l-.118.336-3.793 10.973-.138.462L2 29h2.453l2.238-5.986h5.641L14.604 29h2.542l-1.923-5.229-.139-.462L11.174 12H8zM9.6 14.752l2.088 6.25-4.352.006z" color="#000" font-weight="400" font-family="sans-serif" overflow="visible" fill="#fff"/></svg>
